X:95
T:T061A- A New Song For young Mothers, & Nurses
S:Single sheet song, c 1720, Folger Shakespeare Lib.
Q:1/4=120
L:1/4
M:9/4
K:C
(c3/2 B/)AAEAAEA|(c3/2 B/)AAEAB2B|c3/2 B/A(AE)A(AE)A|\
G2dd2cB2G||c3/2 d/eg2eg2e|c3/2 d/ e(gf)ed2d|\
c3/2 d/ eggegge|B3/2 c/d(de)dB2B|]

